icons/glyphs/glyph-htop.svg

<?xml version="1.0" encoding="UTF-8" standalone="no"?><svg height="16" viewBox="0 0 4.2333332 4.2333332" width="16" xmlns="http://www.w3.org/2000/svg"><sodipodi:namedview/><metadata><rdf:RDF><cc:Work><dc:format>image/svg+xml</dc:format><dc:type/><dc:title/></cc:Work></rdf:RDF></metadata><path d="m0 0v6.4003906h1.015625v-6.4003906zm1.8632812 0v6.4003906h1.015625v-6.4003906zm1.8613282 0v6.4003906h1.015625v-6.4003906zm7.5351566 0v6.4003906h1.015625v-6.4003906zm1.861328 0v6.4003906h1.015625v-6.4003906zm1.863281 0v6.4003906h1.015625v-6.4003906zm-9.5664062 5.9667969v4.0664061h1.015625v-4.0664061zm2.03125 0v4.0664061h1.015625v-4.0664061zm2.0332031 0v4.0664061h1.0156251v-4.0664061zm-9.4824219 3.6328125v6.4003906h1.015625v-6.4003906zm1.8632812 0v6.4003906h1.015625v-6.4003906zm1.8613282 0v6.4003906h1.015625v-6.4003906zm7.5351566 0v6.4003906h1.015625v-6.4003906zm1.861328 0v6.4003906h1.015625v-6.4003906zm1.863281 0v6.4003906h1.015625v-6.4003906z" fill="#d0d0d0" transform="scale(.26458333)"/></svg>

<?xml version="1.0" encoding="UTF-8" standalone="no"?>
<!-- Created with Inkscape (http://www.inkscape.org/) -->

<svg
   xmlns:dc="http://purl.org/dc/elements/1.1/"
   xmlns:cc="http://creativecommons.org/ns#"
   xmlns:rdf="http://www.w3.org/1999/02/22-rdf-syntax-ns#"
   xmlns:svg="http://www.w3.org/2000/svg"
   xmlns="http://www.w3.org/2000/svg"
   xmlns:sodipodi="http://sodipodi.sourceforge.net/DTD/sodipodi-0.dtd"
   xmlns:inkscape="http://www.inkscape.org/namespaces/inkscape"
   width="16"
   height="16"
   viewBox="0 0 4.2333332 4.2333332"
   version="1.1"
   id="svg8"
   inkscape:version="0.92+devel (d0390b9f4f, 2017-07-31, custom)"
   sodipodi:docname="glyph-htop.svg">
  <defs
     id="defs2" />
  <sodipodi:namedview
     id="base"
     pagecolor="#002466"
     bordercolor="#ffffff"
     borderopacity="0.38039216"
     inkscape:pageopacity="1"
     inkscape:pageshadow="2"
     inkscape:zoom="18.208"
     inkscape:cx="2.5978761"
     inkscape:cy="7.9162778"
     inkscape:document-units="px"
     inkscape:current-layer="svg8"
     inkscape:document-rotation="0"
     showgrid="false"
     inkscape:showpageshadow="false"
     borderlayer="true"
     inkscape:window-width="1920"
     inkscape:window-height="1051"
     inkscape:window-x="0"
     inkscape:window-y="0"
     inkscape:window-maximized="1"
     units="px" />
  <metadata
     id="metadata5">
    <rdf:RDF>
      <cc:Work
         rdf:about="">
        <dc:format>image/svg+xml</dc:format>
        <dc:type
           rdf:resource="http://purl.org/dc/dcmitype/StillImage" />
        <dc:title></dc:title>
      </cc:Work>
    </rdf:RDF>
  </metadata>
  <path
     style="fill:#d0d0d0;stroke-width:1"
     d="M 0 0 L 0 6.4003906 L 1.015625 6.4003906 L 1.015625 0 L 0 0 z M 1.8632812 0 L 1.8632812 6.4003906 L 2.8789062 6.4003906 L 2.8789062 0 L 1.8632812 0 z M 3.7246094 0 L 3.7246094 6.4003906 L 4.7402344 6.4003906 L 4.7402344 0 L 3.7246094 0 z M 11.259766 0 L 11.259766 6.4003906 L 12.275391 6.4003906 L 12.275391 0 L 11.259766 0 z M 13.121094 0 L 13.121094 6.4003906 L 14.136719 6.4003906 L 14.136719 0 L 13.121094 0 z M 14.984375 0 L 14.984375 6.4003906 L 16 6.4003906 L 16 0 L 14.984375 0 z M 5.4179688 5.9667969 L 5.4179688 10.033203 L 6.4335938 10.033203 L 6.4335938 5.9667969 L 5.4179688 5.9667969 z M 7.4492188 5.9667969 L 7.4492188 10.033203 L 8.4648438 10.033203 L 8.4648438 5.9667969 L 7.4492188 5.9667969 z M 9.4824219 5.9667969 L 9.4824219 10.033203 L 10.498047 10.033203 L 10.498047 5.9667969 L 9.4824219 5.9667969 z M 0 9.5996094 L 0 16 L 1.015625 16 L 1.015625 9.5996094 L 0 9.5996094 z M 1.8632812 9.5996094 L 1.8632812 16 L 2.8789062 16 L 2.8789062 9.5996094 L 1.8632812 9.5996094 z M 3.7246094 9.5996094 L 3.7246094 16 L 4.7402344 16 L 4.7402344 9.5996094 L 3.7246094 9.5996094 z M 11.259766 9.5996094 L 11.259766 16 L 12.275391 16 L 12.275391 9.5996094 L 11.259766 9.5996094 z M 13.121094 9.5996094 L 13.121094 16 L 14.136719 16 L 14.136719 9.5996094 L 13.121094 9.5996094 z M 14.984375 9.5996094 L 14.984375 16 L 16 16 L 16 9.5996094 L 14.984375 9.5996094 z "
     transform="scale(0.26458333)"
     id="rect31"
     inkscape:label="#" />
</svg>
